svg/fluentui-system-icons/ic_fluent_document_bullet_list_cube_24_regular.svg

<svg width="24" height="24" viewBox="0 0 24 24" fill="none" xmlns="http://www.w3.org/2000/svg">
<path d="M10.5152 12.9625L10.3217 12.8658C10.1273 12.7303 10 12.505 10 12.25C10 11.8358 10.3358 11.5 10.75 11.5H16.25C16.6642 11.5 17 11.8358 17 12.25C17 12.6642 16.6642 13 16.25 13H10.75C10.668 13 10.589 12.9868 10.5152 12.9625ZM12 16V15.25C12 14.9915 11.9601 14.739 11.8849 14.5H16.25C16.6642 14.5 17 14.8358 17 15.25C17 15.6642 16.6642 16 16.25 16H12ZM12 19V17.5H16.25C16.6642 17.5 17 17.8358 17 18.25C17 18.6642 16.6642 19 16.25 19H12ZM5.5 11.0505C5.28783 11.0938 5.07996 11.1649 4.88197 11.2639L4 11.7049V4C4 2.896 4.896 2 6 2H12.172C12.1999 2 12.2271 2.00371 12.2542 2.00741C12.2738 2.01008 12.2933 2.01274 12.313 2.014C12.528 2.029 12.74 2.07 12.937 2.152C12.9944 2.17648 13.0488 2.20797 13.103 2.23933C13.1197 2.24897 13.1363 2.25859 13.153 2.268C13.1685 2.27647 13.1845 2.28426 13.2005 2.29207C13.2281 2.30548 13.2557 2.31894 13.281 2.336C13.359 2.389 13.429 2.452 13.5 2.516C13.5115 2.5262 13.5238 2.53567 13.5363 2.54519C13.5531 2.55808 13.57 2.57105 13.585 2.586L19.414 8.414C19.789 8.789 20 9.298 20 9.828V20C20 21.104 19.104 22 18 22H10.5961L10.618 21.989C11.2347 21.6807 11.686 21.1379 11.8859 20.5H18C18.276 20.5 18.5 20.275 18.5 20V10H14C12.896 10 12 9.104 12 8V3.5H6C5.724 3.5 5.5 3.725 5.5 4V11.0505ZM17.378 8.5L13.5 4.621V8C13.5 8.275 13.724 8.5 14 8.5H17.378ZM10.1708 13.9084L6.67082 12.1584C6.24853 11.9472 5.75147 11.9472 5.32918 12.1584L1.82918 13.9084C1.321 14.1624 1 14.6818 1 15.25V19.753C1 20.3211 1.321 20.8405 1.82918 21.0946L5.32918 22.8446C5.75147 23.0557 6.24853 23.0557 6.67082 22.8446L10.1708 21.0946C10.679 20.8405 11 20.3211 11 19.753V15.25C11 14.6818 10.679 14.1624 10.1708 13.9084ZM2.55279 15.2764C2.67628 15.0294 2.97662 14.9293 3.22361 15.0528L6 16.441L8.77639 15.0528C9.02338 14.9293 9.32372 15.0294 9.44721 15.2764C9.57071 15.5234 9.4706 15.8237 9.22361 15.9472L6.5 17.3091V20.5C6.5 20.7762 6.27614 21 6 21C5.72386 21 5.5 20.7762 5.5 20.5V17.3091L2.77639 15.9472C2.5294 15.8237 2.42929 15.5234 2.55279 15.2764Z" fill="#212121"/>
</svg>

<svg xmlns="http://www.w3.org/2000/svg" width="24" height="24"><path d="m10.515 12.963-.193-.097a.75.75 0 0 1 .428-1.366h5.5a.75.75 0 0 1 0 1.5h-5.5a.75.75 0 0 1-.235-.037ZM12 16v-.75c0-.258-.04-.511-.115-.75h4.365a.75.75 0 0 1 0 1.5H12Zm0 3v-1.5h4.25a.75.75 0 0 1 0 1.5H12Zm-6.5-7.95c-.212.044-.42.115-.618.214l-.882.44V4a2 2 0 0 1 2-2h6.172c.028 0 .055.004.082.007a.63.63 0 0 0 .059.007c.215.015.427.056.624.138.057.024.112.056.166.087l.05.029.047.024a.652.652 0 0 1 .081.044c.078.053.148.116.219.18l.036.03a.493.493 0 0 1 .049.04l5.829 5.828A2 2 0 0 1 20 9.828V20a2 2 0 0 1-2 2h-7.404l.022-.011a2.5 2.5 0 0 0 1.268-1.489H18a.5.5 0 0 0 .5-.5V10H14a2 2 0 0 1-2-2V3.5H6a.5.5 0 0 0-.5.5v7.05ZM17.378 8.5 13.5 4.621V8a.5.5 0 0 0 .5.5h3.378Zm-7.207 5.408-3.5-1.75a1.5 1.5 0 0 0-1.342 0l-3.5 1.75A1.5 1.5 0 0 0 1 15.25v4.503a1.5 1.5 0 0 0 .83 1.342l3.5 1.75a1.5 1.5 0 0 0 1.34 0l3.5-1.75a1.5 1.5 0 0 0 .83-1.342V15.25a1.5 1.5 0 0 0-.83-1.342Zm-7.618 1.368a.5.5 0 0 1 .67-.223L6 16.44l2.776-1.388a.5.5 0 1 1 .448.894L6.5 17.31v3.19a.5.5 0 1 1-1 0v-3.19l-2.724-1.363a.5.5 0 0 1-.223-.67Z"/></svg>
